X: 5
T: The Boys Of The Lough
R: reel
M: 4/4
L: 1/8
K: Dmaj
dB |: AF ~F2 AFAB | defd {c}BABc | AF ~F2 dFcF | EDEF E2 dB|  AF ~F2 AFAB | defd ecdB | AF (3FFF dFcF |1 EDEF D2 dB :|2 GFEG FD Ag ||: fg (3agf gfec | defd ec{e}dB | AF ~F2 dFcF | EDEF EGFE |A2 af gfec | decd BcdB | AF (3FFF dFcF |1 GFEG FDAg :|2 GFEG F D3 |


Tune 343	Setting 13135

